alura/assets/api/cursos/java-domain-driven-design-conceitos.svg

<?xml version="1.0" encoding="UTF-8"?>
<svg width="50px" height="50px" viewBox="0 0 50 50" version="1.1" xmlns="http://www.w3.org/2000/svg" xmlns:xlink="http://www.w3.org/1999/xlink">
    <title>Group 16</title>
    <defs>
        <polygon id="path-1" points="0 49 49.1 49 49.1 0.1 0 0.1"></polygon>
    </defs>
    <g id="Page-1" stroke="none" stroke-width="1" fill="none" fill-rule="evenodd">
        <g id="Group-16">
            <polygon id="Fill-1" fill="#E56060" points="46.9502 27.0498 47.2502 30.9498 1.0502 47.7498 1.4502 39.4498 1.9502 34.6508 47.8492 17.9498 47.1492 21.3498"></polygon>
            <polygon id="Fill-2" fill="#FF6B6B" points="47.3496 11.75 46.6496 18.85 1.5496 35.25 1.8496 26.25 2.3496 22.15 47.6496 5.65"></polygon>
            <g id="Group-15" transform="translate(0.000000, 0.900400)">
                <path d="M32.4502,49 L1.2502,49 C0.5592,49 0.0002,48.44 0.0002,47.75 L0.0002,1.35 C0.0002,0.659 0.5592,0.1 1.2502,0.1 L47.8492,0.1 C48.5402,0.1 49.0992,0.659 49.0992,1.35 L49.0992,37.25 C49.0992,37.94 48.5402,38.5 47.8492,38.5 C47.1592,38.5 46.5992,37.94 46.5992,37.25 L46.5992,2.6 L2.5002,2.6 L2.5002,46.5 L32.4502,46.5 C33.1402,46.5 33.7002,47.06 33.7002,47.75 C33.7002,48.44 33.1402,49 32.4502,49" id="Fill-3" fill="#444444"></path>
                <path d="M24.9497,37.75 C24.9497,38.16 24.5597,38.55 24.1497,38.55 L16.2497,38.55 C15.8397,38.55 15.4497,38.16 15.4497,37.75 C15.4497,37.34 15.8397,36.95 16.2497,36.95 L24.1497,36.95 C24.5597,36.95 24.9497,37.34 24.9497,37.75" id="Fill-5" fill="#444444"></path>
                <path d="M32.6494,37.75 C32.6494,38.16 32.2594,38.55 31.8494,38.55 L29.5494,38.55 C29.1394,38.55 28.7504,38.16 28.7504,37.75 C28.7504,37.34 29.1394,36.95 29.5494,36.95 L31.8494,36.95 C32.2594,36.95 32.6494,37.34 32.6494,37.75" id="Fill-7" fill="#444444"></path>
                <path d="M35.75,40.25 L13.65,40.25 L13.65,17.03 L16.64,13.65 L21.75,13.65 L21.75,18.15 L27.75,18.15 L27.75,13.65 L33.35,13.65 L35.75,17.01 L35.75,40.25 Z M14.75,12.05 L21.65,12.05 L21.65,9.05 L14.75,9.05 L14.75,12.05 Z M23.15,16.55 L23.95,16.55 L23.95,9.05 L23.15,9.05 L23.15,16.55 Z M25.45,16.55 L26.15,16.55 L26.15,9.05 L25.45,9.05 L25.45,16.55 Z M27.75,12.05 L34.649,12.05 L34.649,9.05 L27.75,9.05 L27.75,12.05 Z M37.21,16.33 L35.24,13.65 L35.45,13.65 C35.859,13.65 36.25,13.26 36.25,12.85 L36.25,8.35 C36.25,7.94 35.859,7.55 35.45,7.55 L13.95,7.55 C13.54,7.55 13.15,7.94 13.15,8.35 L13.15,12.85 C13.15,13.26 13.54,13.65 13.95,13.65 L14.5,13.65 L12.21,16.21 C12.05,16.37 12.05,16.54 12.05,16.75 L12.05,41.05 C12.05,41.46 12.44,41.85 12.85,41.85 L36.55,41.85 C36.96,41.85 37.35,41.46 37.35,41.05 L37.35,16.75 C37.35,16.64 37.35,16.47 37.21,16.33 L37.21,16.33 Z" id="Fill-9" fill="#444444"></path>
                <path d="M26.1895,27.5303 L26.1795,27.5403 C25.6895,28.3193 24.8305,28.8593 23.9495,28.9503 C23.6995,28.9503 23.4295,28.8593 23.1195,28.6603 L23.2105,28.6163 L23.2935,28.5753 C23.3475,28.5533 23.3495,28.5503 23.3895,28.5303 C23.4495,28.5003 23.5045,28.4523 23.5595,28.4203 C24.5405,27.7593 25.3305,26.9393 25.9195,25.9603 C26.5805,24.9693 27.0005,24.0403 27.2005,23.0803 C27.5405,24.4403 27.1495,26.2593 26.1895,27.5303 M24.5805,25.1393 C24.1295,25.8703 23.4695,26.5593 22.6595,27.1703 C22.5295,27.2403 22.4395,27.3303 22.3595,27.4103 L22.3495,27.4103 C21.9195,25.9103 22.2595,24.3093 23.3095,22.9693 L23.3195,22.9603 C23.7595,22.2393 24.5005,21.7393 25.3495,21.5503 L25.5485,21.5363 C25.6685,21.5363 25.7805,21.5503 25.8795,21.5703 C25.8795,21.5903 25.8705,21.6103 25.8595,21.6393 C25.8395,21.6993 25.8245,21.7733 25.7955,21.8673 L25.7505,22.0503 C25.7285,22.1223 25.7165,22.1643 25.7105,22.2393 C25.6865,22.3273 25.6675,22.4163 25.6495,22.5093 C25.4695,23.4003 25.1095,24.2903 24.5805,25.1393 M28.0095,21.2303 L27.4025,20.6113 C26.8235,20.1963 25.9105,19.8403 25.1195,19.9493 C23.8395,20.1703 22.7515,21.0173 22.0895,21.9293 C20.4605,24.0703 20.1495,27.0593 21.3595,28.9203 C21.3915,28.9933 21.4315,29.0463 21.4405,29.0873 L21.4895,29.1703 C22.0405,29.9503 23.0095,30.4503 23.9495,30.4503 C25.2305,30.4503 26.5005,29.6893 27.4105,28.3703 C29.0195,26.2503 29.2375,23.1183 28.0095,21.2303" id="Fill-11" fill="#444444"></path>
                <mask id="mask-2" fill="white">
                    <use xlink:href="#path-1"></use>
                </mask>
                <g id="Clip-14"></g>
                <path d="M16.95,34.649 L23.35,34.649 L23.35,33.95 L16.95,33.95 L16.95,34.649 Z M15.45,36.149 L24.85,36.149 L24.85,32.349 L15.45,32.349 L15.45,36.149 Z" id="Fill-13" fill="#444444" mask="url(#mask-2)"></path>
            </g>
        </g>
    </g>
</svg>

<svg xmlns="http://www.w3.org/2000/svg" xmlns:xlink="http://www.w3.org/1999/xlink" viewBox="0 0 50 50"><defs><path id="a" d="M0 49h49.1V.1H0z"/></defs><g fill="none" fill-rule="evenodd"><path fill="#E56060" d="M46.95 27.05l.3 3.9-46.2 16.8.4-8.3.5-4.8 45.9-16.7-.7 3.4z"/><path fill="#FF6B6B" d="M47.35 11.75l-.7 7.1-45.1 16.4.3-9 .5-4.1 45.3-16.5z"/><g transform="translate(0 .9)"><path fill="#444" d="M32.45 49H1.25A1.25 1.25 0 010 47.75V1.35C0 .659.56.1 1.25.1h46.6c.69 0 1.25.559 1.25 1.25v35.9a1.25 1.25 0 11-2.5 0V2.6H2.5v43.9h29.95a1.25 1.25 0 010 2.5"/><path fill="#444" d="M24.95 37.75c0 .41-.39.8-.8.8h-7.9c-.41 0-.8-.39-.8-.8 0-.41.39-.8.8-.8h7.9c.41 0 .8.39.8.8m7.7 0c0 .41-.39.8-.8.8h-2.3c-.41 0-.8-.39-.8-.8 0-.41.39-.8.8-.8h2.3c.41 0 .8.39.8.8"/><path fill="#444" d="M35.75 40.25h-22.1V17.03l2.99-3.38h5.11v4.5h6v-4.5h5.6l2.4 3.36v23.24zm-21-28.2h6.9v-3h-6.9v3zm8.4 4.5h.8v-7.5h-.8v7.5zm2.3 0h.7v-7.5h-.7v7.5zm2.3-4.5h6.899v-3H27.75v3zm9.46 4.28l-1.97-2.68h.21c.409 0 .8-.39.8-.8v-4.5c0-.41-.391-.8-.8-.8h-21.5c-.41 0-.8.39-.8.8v4.5c0 .41.39.8.8.8h.55l-2.29 2.56c-.16.16-.16.33-.16.54v24.3c0 .41.39.8.8.8h23.7c.41 0 .8-.39.8-.8v-24.3c0-.11 0-.28-.14-.42z"/><path fill="#444" d="M26.19 27.53l-.01.01c-.49.78-1.35 1.32-2.23 1.41-.25 0-.52-.09-.83-.29l.09-.044.084-.04c.053-.023.055-.026.096-.046.06-.03.114-.078.17-.11a7.795 7.795 0 002.36-2.46c.66-.99 1.08-1.92 1.28-2.88.34 1.36-.05 3.18-1.01 4.45m-1.61-2.39c-.45.73-1.11 1.42-1.92 2.03-.13.07-.22.16-.3.24h-.01c-.43-1.5-.09-3.1.96-4.44l.01-.01c.44-.72 1.18-1.22 2.03-1.41l.198-.014c.12 0 .233.014.332.034 0 .02-.01.04-.02.07-.02.06-.035.133-.064.227l-.046.183a.767.767 0 00-.04.19 3.674 3.674 0 00-.06.27 7.98 7.98 0 01-1.07 2.63m3.43-3.91l-.608-.619c-.579-.415-1.492-.77-2.283-.662-1.28.221-2.367 1.068-3.03 1.98-1.628 2.141-1.94 5.13-.73 6.991.032.073.072.126.081.167l.05.083c.55.78 1.52 1.28 2.46 1.28 1.28 0 2.55-.76 3.46-2.08 1.61-2.12 1.828-5.252.6-7.14"/><mask id="b" fill="#fff"><use xlink:href="#a"/></mask><path fill="#444" d="M16.95 34.649h6.4v-.699h-6.4v.699zm-1.5 1.5h9.4v-3.8h-9.4v3.8z" mask="url(#b)"/></g></g></svg>
